X:291
T:Glenquey
R:Reel
B:The Athole Collection
M:C|
L:1/8
K:D
F|D/D/D AF ADDF|D/D/D AF BEEF|D/D/D AB defe|dBAF ADD:|
f|defg abaf|gefd eBBe|defg abaf|geag fdde|defg abaf|gefd eBBe|
dfeg afge|fbef dDD||

